X:132
T:La fille  l'estame
T:(tow-step)
R:Two-step
S:Carnet du tambourinaire Ginas (1924)
O:France
A:Provence
C:
%%continueall 1
Z:Pour toute observation mailto:galouvielle@free.fr
Z:Transcrit et/ou corrig par Michel BELLON - 2005-07-16
M:6/8
L:1/8
Q:3/8=180
K:Db
F | B2B c2d | c3-c2c | =A2A B2c | B3-B2B | e2ee2e | e3c2c | d2dd2d | d3B2F |
B2B c2d | c3c2c | =A2AB2c | B3-B2B | e2ed2c | d3 Bcd | c3 =A3 | B6- | B2z B2c ||
K:Bb
d2dd2d | ded c2B | (c6 | A3)A2B | c2cc2c | cdc B2A | B6- | B2z B2c | d2dd2d | ded c2B | (c6 | A3) A2B | c2c c2c |
cdc B2A | B6- | B2z |]
W:Pour la batterie, frapper tous les temps.
%%footer $D   Galouvielle-MBe 2005 \nValse France
